X: 1587
T: The Trumpet Hornpipe
M:2/4
L:1/16
R:Hornpipe
N:"2nd Setting"
B:O'Neill's 1587
N:"Collected by J.O'Neill."
Z:Transcribed by Michael D. Long, 9/29/98
K:G
D2|G2GG G2GG|BGBd gdBG|D2DD D2DD|FDFA dcAF|\
GGG2 GGG2|BGBd gdBG|ABcd efge|d2f2 d2:|
|:z2|d2dd d2dd|dBgf edcB|cdec dcBA|GBAF GFED|\
(DGFG) (EGFG)|(DGFG) (EGFG)|(dGFG) dcBA|G2B2 G2:|


